assets/apple.svg

<svg xmlns="http://www.w3.org/2000/svg" fill="none" viewBox="0 0 23 28">
  <path fill="#2A2238" d="M16.9433.0140122C16.8838-.0524875 14.74.0402621 12.8746 2.065c-1.8655 2.02299-1.5785 4.34348-1.5365 4.40298.042.0595 2.66.15225 4.3312-2.20149 1.6712-2.35374 1.3335-4.1842281 1.274-4.2524778ZM22.7428 20.5467c-.084-.168-4.0688-2.1595-3.6978-5.9885.371-3.8307 2.9313-4.88074 2.9715-4.99449.0403-.11375-1.0447-1.38249-2.1945-2.02474-.8441-.4528-1.7784-.71223-2.7352-.75949-.189-.00525-.8453-.16625-2.1945.203-.889.24325-2.8927 1.03074-3.444 1.06224-.553.0315-2.19798-.91349-3.96722-1.16374-1.13224-.21875-2.33274.22925-3.19198.57399-.8575.343-2.48849 1.3195-3.629483 3.91473-1.140994 2.5935-.544247 6.7025-.11725 7.98.426998 1.2757 1.093743 3.3669 2.227743 4.8929 1.00799 1.722 2.34498 2.9173 2.90323 3.3233.55825.406 2.13324.6755 3.22524.1172.87849-.539 2.46402-.8487 3.09052-.826.6247.0228 1.8567.2695 3.1184.9433.9993.3447 1.9443.2012 2.891-.1838.9468-.3867 2.317-1.8532 3.9165-4.8265.6073-1.3824.8838-2.1297.8278-2.2434Z"/>
</svg>

<svg width="23" height="28" viewBox="0 0 23 28" fill="none" xmlns="http://www.w3.org/2000/svg">
<path d="M16.9433 0.0140122C16.8838 -0.0524875 14.74 0.0402621 12.8746 2.065C11.0091 4.08799 11.2961 6.40848 11.3381 6.46798C11.3801 6.52748 13.9981 6.62023 15.6693 4.26649C17.3405 1.91275 17.0028 0.0822619 16.9433 0.0140122V0.0140122ZM22.7428 20.5467C22.6588 20.3787 18.674 18.3872 19.045 14.5582C19.416 10.7275 21.9763 9.67746 22.0165 9.56371C22.0568 9.44996 20.9718 8.18122 19.822 7.53897C18.9779 7.08617 18.0436 6.82674 17.0868 6.77948C16.8978 6.77423 16.2415 6.61323 14.8923 6.98248C14.0033 7.22573 11.9996 8.01322 11.4483 8.04472C10.8953 8.07622 9.25032 7.13123 7.48108 6.88098C6.34884 6.66223 5.14834 7.11023 4.2891 7.45497C3.4316 7.79797 1.80061 8.77447 0.659617 11.3697C-0.481377 13.9632 0.11537 18.0722 0.542367 19.3497C0.969365 20.6254 1.63611 22.7166 2.77011 24.2426C3.7781 25.9646 5.11509 27.1599 5.67334 27.5659C6.23159 27.9719 7.80658 28.2414 8.89858 27.6831C9.77707 27.1441 11.3626 26.8344 11.9891 26.8571C12.6138 26.8799 13.8458 27.1266 15.1075 27.8004C16.1068 28.1451 17.0518 28.0016 17.9985 27.6166C18.9453 27.2299 20.3155 25.7634 21.915 22.7901C22.5223 21.4077 22.7988 20.6604 22.7428 20.5467V20.5467Z" fill="#2A2238"/>
</svg>
